src/24/panel/crow-translate-tray.svg

<svg xmlns="http://www.w3.org/2000/svg" width="24" height="24" version="1.1">
 <defs>
  <style id="current-color-scheme" type="text/css">
   .ColorScheme-Text { color:#dfdfdf; } .ColorScheme-Highlight { color:#4285f4; }
  </style>
 </defs>
 <path style="fill:currentColor;opacity:0.3" class="ColorScheme-Text" d="M 12 4 C 7.5817 4 4 7.5817003 4 12 C 4 14.607097 5.2531965 16.916373 7.1835938 18.376953 C 7.218984 18.357321 7.256186 18.340906 7.2910156 18.320312 C 7.8640203 17.980897 8.4135433 17.581978 8.9433594 17.15625 C 7.1832049 16.110481 6 14.195768 6 12 C 6 8.6862753 8.686275 5.9999999 12 6 C 12.725915 6 13.418426 6.1348852 14.0625 6.3710938 C 14.065074 5.8268516 14.039531 5.2830989 13.945312 4.7480469 C 13.998843 4.5617562 14.020397 4.4675407 14.060547 4.28125 C 14.060856 4.279718 14.060242 4.2788547 14.060547 4.2773438 C 13.401947 4.1019152 12.713831 4 12 4 z M 14.177734 4.3066406 C 14.335788 5.0296032 14.391425 5.7626819 14.390625 6.4980469 C 16.51401 7.4220571 18 9.5364714 18 12 C 18 15.3135 15.3135 18 12 18 C 11.031633 18 10.120369 17.764869 9.3105469 17.357422 C 9.3017738 17.364595 9.2939268 17.373712 9.2851562 17.380859 C 8.7061853 17.851947 8.0814138 18.237713 7.4199219 18.552734 C 8.7180365 19.461824 10.294935 20 12 20 C 16.418 20 20 16.418 20 12 C 20 8.3376682 17.536053 5.2559723 14.177734 4.3066406 z"/>
 <path style="fill:currentColor" class="ColorScheme-Text" d="M 14.115234 4.0019531 C 14.096114 4.1117666 14.083487 4.1675146 14.060547 4.28125 C 14.020397 4.4675407 13.998843 4.5617562 13.945312 4.7480469 C 14.102083 5.6383205 14.105561 6.5550154 14.019531 7.4511719 C 13.999891 7.655354 13.971517 7.8591401 13.935547 8.0625 C 13.916821 8.108593 14.308594 8.0996094 14.308594 8.0996094 C 14.338184 7.8884346 14.359641 7.6773836 14.369141 7.46875 C 14.42076 6.3078646 14.415388 5.139307 14.115234 4.0019531 z M 13.916016 8.109375 C 13.534593 8.4478735 13.149281 8.8066955 12.863281 9.2148438 C 12.173678 10.200832 11.734487 11.447038 10.84375 12.298828 C 10.48171 12.643644 10.05987 12.944315 9.6269531 13.208984 C 9.854905 13.242524 10.107984 13.26533 10.335938 13.21875 C 9.8762021 13.509514 9.3617782 13.786143 8.9863281 14.173828 C 8.8005187 14.363943 8.6077972 14.558289 8.4277344 14.755859 C 8.5733172 14.666389 8.7436902 14.564401 8.9199219 14.5625 C 9.2110872 14.5588 9.7695313 14.236328 9.7695312 14.236328 C 9.7695312 14.236328 8.7181107 14.91266 8.2871094 15.332031 C 8.0419176 15.570607 7.7653991 15.798188 7.5546875 16.070312 C 7.365045 16.316323 7.3613281 16.310547 7.3613281 16.310547 C 7.7157069 16.180075 8.0756467 16.04499 8.4472656 15.964844 C 8.2978518 16.018894 8.2255479 16.045377 8.0742188 16.095703 C 7.7447421 16.226175 7.3675251 16.32426 7.0859375 16.488281 C 6.5783137 16.784637 6.0751196 17.545493 5.7226562 18.046875 C 5.5349312 18.311545 5.2255106 18.536469 5.0722656 18.808594 C 4.9841496 18.96516 4.9926009 19.128917 5.0136719 19.169922 C 5.1688323 19.455094 5.9438861 19.696405 6.3691406 19.800781 C 6.8805956 19.923797 7.4185331 19.979498 7.9453125 20 C 8.2575489 19.93477 8.5806795 19.805872 8.8105469 19.585938 C 9.1227834 19.287716 9.5738436 18.999103 9.7539062 18.613281 C 9.8573468 18.395207 10.015772 18.26738 10.021484 18.263672 C 9.7858705 18.653223 9.5277188 19.030809 9.2480469 19.388672 C 9.1139576 19.558285 8.9296875 19.773438 8.9296875 19.773438 C 9.2419239 19.661606 9.5685101 19.478062 9.875 19.427734 C 10.064641 19.396044 10.27434 19.308027 10.419922 19.173828 C 10.575082 19.03031 10.809345 18.973417 10.947266 18.826172 C 11.328462 18.417984 11.585262 17.795879 11.949219 17.367188 C 11.995189 17.313137 12.105168 17.172201 12.189453 17.056641 C 12.256503 16.963451 12.310547 16.884766 12.310547 16.884766 C 12.117076 17.322776 11.923526 17.768395 11.708984 18.193359 C 11.707084 18.197159 11.706978 18.201338 11.705078 18.205078 C 11.639948 18.322503 11.542964 18.436728 11.443359 18.542969 C 11.429939 18.557869 11.417707 18.571017 11.404297 18.585938 C 11.387067 18.604557 11.397058 18.604774 11.423828 18.589844 C 11.812687 18.384818 12.155725 18.072203 12.527344 17.826172 C 12.538834 17.818772 12.550984 17.812241 12.558594 17.806641 C 12.836351 17.646348 13.082144 17.362158 13.287109 17.134766 C 13.480581 16.92042 13.579138 16.790051 13.630859 16.484375 C 13.632759 16.475075 13.632866 16.466351 13.634766 16.457031 C 13.697976 16.015293 13.765511 15.574729 13.859375 15.136719 C 13.878525 15.045389 13.892807 14.967757 13.904297 14.90625 C 13.904297 14.89885 13.906303 14.888269 13.908203 14.880859 C 13.910103 14.865959 13.914116 14.850941 13.916016 14.837891 C 13.917916 14.830491 13.918022 14.823836 13.919922 14.816406 C 13.921822 14.803356 13.923881 14.792523 13.925781 14.783203 L 13.925781 14.78125 C 13.925781 14.77565 13.929741 14.755467 13.931641 14.748047 C 13.935441 14.727547 13.960937 14.654297 13.960938 14.654297 L 13.960938 14.683594 L 13.960938 14.701172 C 13.945566 15.47468 13.820692 16.3079 13.939453 17.068359 C 14.027573 17.631249 14.078125 17.515625 14.078125 17.515625 C 14.129845 16.852086 14.06092 16.045301 14.279297 15.441406 C 14.426795 15.033217 14.663614 14.590264 14.740234 14.150391 C 14.818764 13.699333 14.816178 13.2181 14.804688 12.755859 C 14.789367 12.157556 14.752211 11.555423 14.666016 10.958984 C 14.746466 11.242293 14.863576 11.539313 14.878906 11.830078 C 14.894226 12.10593 14.902546 12.390431 14.910156 12.671875 C 14.975286 12.325196 15.024644 11.955789 14.986328 11.603516 C 14.949888 11.279203 15.012972 10.947628 14.976562 10.628906 C 14.92869 10.211448 14.915188 9.7602863 14.773438 9.3632812 C 14.637432 8.9755957 14.460863 8.5887681 14.357422 8.1992188 C 14.347749 8.1632822 14.323298 8.1341233 14.294922 8.109375 C 14.144653 9.1738211 13.779611 10.257249 13.445312 11.25 C 13.022805 12.506972 12.345615 13.569669 11.708984 14.708984 C 11.123971 15.754173 10.197088 16.637657 9.2851562 17.380859 C 8.4898447 18.027975 7.610407 18.522012 6.6640625 18.878906 C 6.3696442 18.98872 6.0401401 19.027305 5.7285156 19.037109 C 5.4990987 19.043009 5.3357722 19.029297 5.328125 19.029297 C 6.0049047 18.884186 6.6907082 18.675245 7.2910156 18.320312 C 8.9561995 17.333952 10.525019 15.983437 11.501953 14.261719 C 12.12329 13.169467 12.710015 12.096589 13.119141 10.896484 C 13.425082 9.9948886 13.742969 9.057721 13.916016 8.109375 z"/>
</svg>

<svg xmlns="http://www.w3.org/2000/svg" width="24" height="24"><defs><style id="current-color-scheme" type="text/css">.ColorScheme-Text{color:#323232}</style></defs><path class="ColorScheme-Text" d="M12 4a8 8 0 0 0-8 8 7.98 7.98 0 0 0 3.184 6.377c.035-.02.072-.036.107-.057.573-.34 1.123-.738 1.652-1.164A5.99 5.99 0 0 1 6 12a6 6 0 0 1 6-6c.726 0 1.418.135 2.063.371a9.099 9.099 0 0 0-.118-1.623c.054-.186.075-.28.116-.467v-.004A7.984 7.984 0 0 0 12 4zm2.178.307c.158.723.213 1.456.213 2.191A6 6 0 0 1 12 18c-.968 0-1.88-.235-2.69-.643-.008.008-.016.017-.025.024a9.22 9.22 0 0 1-1.865 1.172A7.956 7.956 0 0 0 12 20a8 8 0 0 0 8-8c0-3.662-2.464-6.744-5.822-7.693z" fill="currentColor" opacity=".3"/><path class="ColorScheme-Text" d="M14.115 4.002c-.019.11-.032.166-.054.28-.04.186-.062.28-.116.466.157.89.16 1.807.075 2.703-.02.204-.048.408-.084.612-.02.046.373.037.373.037a6.78 6.78 0 0 0 .06-.631c.052-1.161.046-2.33-.254-3.467zm-.199 4.107c-.381.339-.767.698-1.053 1.106-.69.986-1.129 2.232-2.02 3.084a7.238 7.238 0 0 1-1.216.91c.228.034.481.056.709.01-.46.29-.974.567-1.35.955-.185.19-.378.384-.558.582.145-.09.316-.192.492-.194.291-.003.85-.326.85-.326s-1.052.677-1.483 1.096c-.245.239-.522.466-.732.738-.19.246-.194.24-.194.24.355-.13.715-.265 1.086-.345-.15.054-.221.08-.373.13-.33.131-.706.23-.988.393-.508.297-1.01 1.057-1.363 1.559-.188.265-.497.49-.65.762-.089.156-.08.32-.06.36.156.286.93.527 1.356.632.512.123 1.05.178 1.576.199.313-.065.636-.194.866-.414.312-.298.763-.587.943-.973.103-.218.262-.346.267-.35-.235.39-.493.768-.773 1.126-.134.17-.318.384-.318.384.312-.111.639-.295.945-.345.19-.032.4-.12.545-.254.155-.144.39-.2.527-.348.381-.408.638-1.03 1.002-1.459.046-.054.156-.195.24-.31.068-.094.122-.172.122-.172-.194.438-.387.883-.602 1.308l-.004.012a1.791 1.791 0 0 1-.262.338l-.039.043c-.017.019-.007.019.02.004.389-.205.732-.518 1.103-.764l.032-.02c.277-.16.523-.444.728-.671.194-.215.292-.345.344-.65l.004-.028c.063-.442.13-.882.224-1.32.02-.092.034-.17.045-.23 0-.008.002-.019.004-.026l.008-.043.004-.022a.58.58 0 0 1 .006-.033v-.002l.006-.033c.003-.02.029-.094.029-.094v.047c-.015.774-.14 1.607-.022 2.367.089.563.14.448.14.448.05-.664-.018-1.47.2-2.075.148-.408.385-.85.461-1.29.079-.452.076-.933.065-1.395-.016-.598-.053-1.2-.139-1.797.08.283.198.58.213.871.015.276.024.56.031.842.065-.347.115-.716.076-1.068-.036-.325.027-.656-.01-.975-.047-.418-.06-.869-.203-1.266-.136-.387-.312-.774-.416-1.164a.188.188 0 0 0-.062-.09c-.15 1.065-.515 2.148-.85 3.141-.422 1.257-1.1 2.32-1.736 3.459-.585 1.045-1.512 1.929-2.424 2.672a9.354 9.354 0 0 1-2.62 1.498c-.295.11-.625.148-.936.158-.23.006-.393-.008-.4-.008.676-.145 1.362-.354 1.962-.709 1.665-.986 3.234-2.337 4.211-4.058.621-1.093 1.208-2.165 1.617-3.366.306-.901.624-1.838.797-2.787z" fill="currentColor"/></svg>
